!!!COM: Mozart, Wolfgang Amadeus
!!!OPR: Quartet in B-flat Major
!!!OTL:
!!!OMV: 1
!!!SCT: K 458
!!!SCA: Chronologisch-thematisches Verzeichnis sämtlicher Tonwerke Wolfgang Amade Mozarts (L. von Köchel; 1862, 2/1905, 3/1937, 1947)
!!!YOR: Breitkopf & Härtel Edition
!!!EED: Frances Bennion
!!!ENC: Frances Bennion
!!!CDT: 1756/1/27/-1791/12/5/
!!!OCY: Österreich
!!!YEC: Copyright (c) 1994, 2000 Center for Computer Assisted Research in the Humanities
!!!YEM: Rights to all derivative editions reserved.
!!!YEM: Refer to licensing agreement for further details.
!!!YEN: United States of America
**kern	**kern	**kern	**kern
*k[b-e-]	*k[b-e-]	*k[b-e-]	*k[b-e-]
*B-:	*B-:	*B-:	*B-:
*clefG	*clefG	*clefF	*clefC
*M6/8	*M6/8	*M6/8	*M6/8
*tb16	*tb16	*tb16	*tb16
=0-	=0-	=0-	=0-
2r	2r	2r	2r
8r	8r	8r	8r
8ff	8dd	8r	8r
=1	=1	=1	=1
8ff	8dd	4b-	4B-
8dd	8b-	.	.
8dd	8b-	8f	8r
8dd	8b-	8f	4BB-
8b-	8f	8d	.
8b-	8f	8d	8r
=2	=2	=2	=2
4b-	4f	4d	4D
8dd	8b-	8f	8BB-
4cc	4a	4.f	4F
8dd	8b-	.	8D
=3	=3	=3	=3
8.ee-	4cc	8.g	4C
16dd	.	16f	.
8cc	8r	8e-	8r
8g	4.c	4e-	8E-
8b-	.	.	8C
8a	.	8c	8F
=4	=4	=4	=4
4b-	4f	8B-	4D
.	.	8d	.
8dd	8b-	8f	8BB-
4cc	4a	4f	4F
8ff	8dd	8r	8r
=5	=5	=5	=5
16ff	16dd	4b-	4B-
16gg	16ee-	.	.
8ff	8dd	.	.
8dd	8b-	8f	8r
16dd	16b-	16f	4BB-
16ee-	16cc	16g	.
8dd	8b-	8f	.
8b-	8f	8d	8r
=6	=6	=6	=6
4b-	4f	4d	4D
8dd	8b-	8f	8BB-
4cc	4a	4.f	4F
8dd	8b-	.	8D
=7	=7	=7	=7
8.ee-	4cc	8.g	4C
16dd	.	16f	.
8cc	8r	8e-	8r
8g	4.c	4.e-	8E-
8b-	.	.	8C
8a	.	.	8F
=8	=8	=8	=8
4b-	8B-	4d	8BB-
.	16B-	.	8BB-
.	16A	.	.
8dd	16B-	8f	8BB-
.	16A	.	.
4b-	4B-	4d	[4.BB-
8r	8f	8d	.
=9	=9	=9	=9
2.r	4g	4e-	2.BB-_
.	8f	8d	.
.	8.e-	8.c	.
.	16d	16B-	.
.	8e-	8c	.
=10	=10	=10	=10
2r	8f	2d	2.BB-]
.	8a	.	.
.	8b-	.	.
.	4.f	.	.
8r	.	8a	.
8dd	.	8b-	.
=11	=11	=11	=11
16ee-	2.a 2.c	2.f	2.FF
16ff	.	.	.
16gg	.	.	.
16ff	.	.	.
16ee-	.	.	.
16dd	.	.	.
16cc	.	.	.
16b-	.	.	.
16a	.	.	.
16g	.	.	.
16f	.	.	.
16e-	.	.	.
=12	=12	=12	=12
16d	[2b-	[2f	2BB-
16e-	.	.	.
16f	.	.	.
16g	.	.	.
16a	.	.	.
16b-	.	.	.
4f	.	.	.
.	8b- 8d]	8f 8B-]	8BB-
8r	8f	8d	8BB-
=13	=13	=13	=13
2.r	4g	4e-	[2.BB-
.	8f	8d	.
.	8.e-	8.c	.
.	16d	16B-	.
.	8e-	8c	.
=14	=14	=14	=14
2r	8f	2d	2.BB-]
.	8a	.	.
.	8b-	.	.
.	4.f	.	.
8r	.	8a	.
8dd	.	8b-	.
=15	=15	=15	=15
16ee-	2.cc 2.e-	4.a	2.FF
16dd	.	.	.
16cc	.	.	.
16b-	.	.	.
16a	.	.	.
16b-	.	.	.
16cc	.	[4.f	.
16dd	.	.	.
16ee-	.	.	.
16ff	.	.	.
16gg	.	.	.
16aa	.	.	.
=16	=16	=16	=16
8bb-	8b- 8d	8f]	8BB-
16r	4r	4r	4r
16b-	.	.	.
16a	.	.	.
16b-	.	.	.
16cc	4.cc 4.e-	[4.f	4.F
16dd	.	.	.
16ee-	.	.	.
16ff	.	.	.
16gg	.	.	.
16aa	.	.	.
=17	=17	=17	=17
8bb-	8b- 8d	8f]	8B-
16r	4r	4r	4r
16b-	.	.	.
16a	.	.	.
16b-	.	.	.
16cc	4.cc 4.e-	[4.f	4.F
16dd	.	.	.
16ee-	.	.	.
16ff	.	.	.
16gg	.	.	.
16aa	.	.	.
=18	=18	=18	=18
8bb-	8b- 8d	8f]	8B-
4r	8bb-	8b-	8B-
.	8bb-	8b-	8B-
8gg	8r	8r	8r
4r	8gg	8g	8G
.	8gg	8g	8G
=19	=19	=19	=19
8dd	8r	8r	8r
4r	8dd	8d	8D
.	8dd	8d	8D
8ee	8r	8r	8r
4r	8ee	8e	8E
.	8ee	8e	8E
=20	=20	=20	=20
[2.ff	8r	8r	[2.F
.	8c	8A	.
.	8e-	8c	.
.	8d	8B-	.
.	8c	8A	.
.	8B-	8G	.
=21	=21	=21	=21
2.ff_	8A	8F	2.F_
.	8c	8A	.
.	8e-	8c	.
.	8d	8B-	.
.	8c	8A	.
.	8B-	8G	.
=22	=22	=22	=22
8ff]	8A	8F	8F]
8gg	8r	8r	8r
8ee	8B-	8G	8C
8ff	8A	8F	8F
8aa	8r	8r	8r
8ee	8B-	8G	8C
=23	=23	=23	=23
8ff	8A	8F	8F
8ccc	8r	8r	8r
8ee	8b-	8g	8c
8ff	8a	8f	8F
8fff	8r	8r	8r
8ee	8b-	8g	8c
=24	=24	=24	=24
8ff	8a	8f	8F
8ff	8a	8c	8F
8ff	8a	8c	8F
8ff	8a	8c	8F
8ff	8a	8c	8F
8ff	8a	8c	8F
=25	=25	=25	=25
4ff	4a	4c	4F
8r	2r	2r	2r
4ff	.	.	.
8r	.	.	.
=26	=26	=26	=26
2.ff	2r	2r	2.r
.	8r	8r	.
.	8f	8G	.
=27	=27	=27	=27
2.ff	8f	8d	2.r
.	8d	8B-	.
.	8d	8B-	.
.	8d	8B-	.
.	8B-	8D	.
.	8B-	8D	.
=28	=28	=28	=28
2.ff	4B-	4F	4D
.	8d	8B-	8BB-
.	4c	4A	4F
.	8d	8B	8r
=29	=29	=29	=29
2.ff	16e-	16c	2.r
.	16f	16d	.
.	8e-	8c	.
.	8c	8A	.
.	16c	16A	.
.	16d	16B-	.
.	8c	8A	.
.	8A	8C	.
=30	=30	=30	=30
4.ff	4A	4C	4FF
.	8e-	8c	8AA
4f	4d	4B-	4BB-
[8dd	8f#	8c	8AA
=31	=31	=31	=31
8dd]	4.g	4.B-	4.GG
16ee	.	.	.
16ff#	.	.	.
16gg	.	.	.
16aa	.	.	.
16bb-	4d	4G	4.G
16aa	.	.	.
16gg	.	.	.
16ff	.	.	.
16ee	8b-	8g	.
16dd	.	.	.
=32	=32	=32	=32
16dd	4.b-	4.g	4.E
16cc	.	.	.
16dd	.	.	.
16ee	.	.	.
16ff	.	.	.
16gg	.	.	.
16aa	[4.a	[4.f	4.F
16gg	.	.	.
16ff	.	.	.
16ee	.	.	.
16dd	.	.	.
16cc	.	.	.
=33	=33	=33	=33
16cc	4.a]	4.f]	4.D
16b-	.	.	.
16cc	.	.	.
16dd	.	.	.
16ee	.	.	.
16ff	.	.	.
16gg	[4.g	[4.e	4.E
16ff	.	.	.
16ee	.	.	.
16dd	.	.	.
16cc	.	.	.
16b-	.	.	.
=34	=34	=34	=34
16b-	4.g]	4.e]	4.C#
16a	.	.	.
16b	.	.	.
16cc#	.	.	.
16dd	.	.	.
16ee	.	.	.
16ff	4.f	4.d	4.D
16ee	.	.	.
16dd	.	.	.
16cc	.	.	.
16b-	.	.	.
16a	.	.	.
=35	=35	=35	=35
8a	4.f	4.d	4.BB-
8g	.	.	.
8dd	.	.	.
8bb-	8dd	8B-	8GG
8aa	8cc	8c	8AA
8gg	8b-	8d	8BB-
=36	=36	=36	=36
4ff	4a	4.c	4.C
4ee	8g	.	.
.	4g	4B-	4.E
8dd	.	.	.
8cc	8b-	8G	.
=37	=37	=37	=37
8cc	8a	4.A	4.F
8ff	8cc	.	.
8cc	8a	.	.
8cc	8a	8c	8AA
8b-	8g	8d	8BB-
8a	8f	8d	8BB
=38	=38	=38	=38
8a	8f	[2.c	4.C
8g	8e	.	.
4dd	4b-	.	.
.	.	.	4.E
8cc	8a	.	.
8b-	8g	.	.
=39	=39	=39	=39
8b-	8a	2c_	4.F
8a	8f	.	.
4cc	4a	.	.
.	.	.	4A
8b-	8g	8c]	.
8a	8f	8d	8B-
=40	=40	=40	=40
8a	8f	2.c_	4.c
8g	8e	.	.
4dd	4b-	.	.
.	.	.	4.E
8cc	8a	.	.
8b-	8g	.	.
=41	=41	=41	=41
8b-	8g	4c]	4.F
8a	8f	.	.
4cc	4a	8A	.
.	.	4.F	4.D
8a	8r	.	.
8f	8f	.	.
=42	=42	=42	=42
16cc	4.e	4.G	4.C
16dd	.	.	.
16cc	.	.	.
16dd	.	.	.
8cc	.	.	.
4.r	8r	4.r	4.r
.	8a	.	.
.	8f	.	.
=43	=43	=43	=43
2.r	16cc	2r	2.r
.	16dd	.	.
.	16cc	.	.
.	16dd	.	.
.	8cc	.	.
.	4.r	.	.
.	.	8A	.
.	.	8F	.
=44	=44	=44	=44
2.r	2.r	16c	2r
.	.	16d	.
.	.	16c	.
.	.	16d	.
.	.	8c	.
.	.	4.r	.
.	.	.	8AA
.	.	.	8FF
=45	=45	=45	=45
2.r	2.r	4.r	16C
.	.	.	16D
.	.	.	16C
.	.	.	16D
.	.	.	8C
.	.	16c	4.r
.	.	16d	.
.	.	16c	.
.	.	16d	.
.	.	8c	.
=46	=46	=46	=46
4.r	16cc	2.r	2.r
.	16dd	.	.
.	16cc	.	.
.	16dd	.	.
.	8cc	.	.
16ccc	4.r	.	.
16ddd	.	.	.
16ccc	.	.	.
16ddd	.	.	.
8ccc	.	.	.
=47	=47	=47	=47
16b-	4.e 4.G	2.r	4.C
16cc	.	.	.
16b-	.	.	.
16cc	.	.	.
8b-	.	.	.
8r	4.f	.	4.D-
8b-	.	.	.
8b-	.	.	.
=48	=48	=48	=48
4ff	4.g 4.G	16B-	4.C
.	.	16c	.
.	.	16B-	.
.	.	16c	.
8ee	.	8B-	.
4.r	4.f	8r	4.D-
.	.	8B-	.
.	.	8B-	.
=49	=49	=49	=49
16b-	4.g	4f	4.C
16cc	.	.	.
16b-	.	.	.
16cc	.	.	.
8b-	.	8e	.
8r	4.f	4.r	4.D-
8b-	.	.	.
8b-	.	.	.
=50	=50	=50	=50
4ff	4.g	16B-	4.C
.	.	16c	.
.	.	16B-	.
.	.	16c	.
8ee	.	8B-	.
4bb-	[4.cc	4g	4.B-
16gg	.	16e	.
16ee	.	16g	.
=51	=51	=51	=51
16ff	8cc]	8f	8A
16gg	.	.	.
16ff	4r	4r	4r
16gg	.	.	.
8aa	.	.	.
16dd	8b-	8f	8B-
16ee	.	.	.
16dd	4r	4r	4r
16ee	.	.	.
8ff	.	.	.
=52	=52	=52	=52
16b-	8d	8B-	8G
16cc	.	.	.
16b-	4r	4r	4r
16cc	.	.	.
8dd	.	.	.
16g	8g	8c	8E
16a	.	.	.
16g	4r	4r	4r
16a	.	.	.
8b-	.	.	.
=53	=53	=53	=53
8a	8f	4.c	4.F
8dd	8b-	.	.
8cc	8a	.	.
8b-	8g	8d	8BB-
8a	8f	8c	8C
8g	8e	8B-	8C
=54	=54	=54	=54
4f	4f	4A	4FF
2r	8r	2r	2r
.	8f	.	.
.	8g	.	.
.	8a	.	.
=55	=55	=55	=55
2.r	16c	4B-	4E
.	16d	.	.
.	16c	.	.
.	16d	.	.
.	8c	8A	8F
.	8f	4.r	4.r
.	8g	.	.
.	8a	.	.
=56	=56	=56	=56
2.r	16c	4B-	4E
.	16d	.	.
.	16c	.	.
.	16d	.	.
.	8c	8A	8F
.	8f	4.r	4.r
.	8g	.	.
.	8a	.	.
=57	=57	=57	=57
2.r	16c	4B-	4E
.	16d	.	.
.	16c	.	.
.	16d	.	.
.	8c	8A	8F
.	16f	4e-	4A
.	16g	.	.
.	16f	.	.
.	16g	.	.
.	8f	8d	8B-
=58	=58	=58	=58
2.r	16g	4f	4B
.	16a	.	.
.	16g	.	.
.	16a	.	.
.	8g	8e	8c
.	16cc	4b-	4e
.	16dd	.	.
.	16cc	.	.
.	16dd	.	.
.	8cc	8a	8f
=59	=59	=59	=59
2.r	8r	8r	4B-
.	8dd	8b-	.
.	8cc	8a	8r
.	8b-	8g	4c
.	8a	8f	.
.	8g	8e	8r
=60	=60	=60	=60
4.r	4f	4f	4F
.	2r	2r	2r
8ff	.	.	.
8gg	.	.	.
8aa	.	.	.
=61	=61	=61	=61
16cc	4b-	4e	2.r
16dd	.	.	.
16cc	.	.	.
16dd	.	.	.
8cc	8a	8f	.
8ff	4.r	4.r	.
8gg	.	.	.
8aa	.	.	.
=62	=62	=62	=62
16cc	4b-	4e	2.r
16dd	.	.	.
16cc	.	.	.
16dd	.	.	.
8cc	8a	8f	.
8ff	4.r	4.r	.
8gg	.	.	.
8aa	.	.	.
=63	=63	=63	=63
16a	4g	4c#	2.r
16b-	.	.	.
16a	.	.	.
16b-	.	.	.
8a	8f	8d	.
16dd	4cc	4f#	.
16ee-	.	.	.
16dd	.	.	.
16ee-	.	.	.
8dd	8b-	8g	.
=64	=64	=64	=64
16gg	16g	4f	4B
16aa	16a	.	.
16gg	16g	.	.
16aa	16a	.	.
8gg	8g	8e	8c
16ccc	16cc	4b-	4e
16ddd	16dd	.	.
16ccc	16cc	.	.
16ddd	16dd	.	.
8ccc	8cc	8a	8f
=65	=65	=65	=65
8r	8r	8r	4B-
8ddd	8dd	8b-	.
8ccc	8cc	8a	8r
8bb-	8b-	8g	4c
8aa	8a	8f	.
8gg	8g	8e	8r
=66	=66	=66	=66
2.ff	4f	16a	16f
.	.	16b-	16g
.	.	16a	16f
.	.	16b-	16g
.	2r	8cc	8a
.	.	16f	16d
.	.	16g	16e
.	.	16f	16d
.	.	16g	16e
.	.	8a	8f
=67	=67	=67	=67
2.ddd	16g	16d	16B-
.	16a	16e	16c
.	16g	16d	16B-
.	16a	16e	16c
.	8b-	8f	8d
.	16e	16B-	16G
.	16f	16c	16A
.	16e	16B-	16G
.	16f	16c	16A
.	8g	8d	8B-
=68	=68	=68	=68
16ccc	4bb-	4g	4E
16ddd	.	.	.
16ccc	.	.	.
16ddd	.	.	.
8ccc	8aa	8a	8F
8bb-	8gg	8dd	8B-
8aa	8ff	8cc	8c
8gg	8ee	8b-	8c
=69	=69	=69	=69
2.ff	4ff	16a	16F
.	.	16b-	16G
.	.	16a	16F
.	.	16b-	16G
.	2r	8cc	8A
.	.	16f	16D
.	.	16g	16E
.	.	16f	16D
.	.	16g	16E
.	.	8a	8F
=70	=70	=70	=70
2.ddd	16g	16d	16BB-
.	16a	16e	16C
.	16g	16d	16BB-
.	16a	16e	16C
.	8b-	8f	8D
.	16e	16B-	16GG
.	16f	16c	16AA
.	16e	16B-	16GG
.	16f	16c	16AA
.	8g	8d	8BB-
=71	=71	=71	=71
2.ddd-	2.B-	2.G	2.EE
=72	=72	=72	=72
2.ccc	2.e-	2.A	2.FF#
=73	=73	=73	=73
2.bb	[2.f	2.d	2.GG#
=74	=74	=74	=74
4.ccc	4.f]	4.c	4.AA
4.ddd	4.a-	[4.f	4.BB
=75	=75	=75	=75
8ccc	8a	8f]	8C
8bb	2r	2r	2r
8bb-	.	.	.
8aa	.	.	.
8aa-	.	.	.
8gg	8r	8r	8r
=76	=76	=76	=76
4.ff	4.c	4.A	2.CC
4.gg	4.e	4.B-	.
=77	=77	=77	=77
[2.ff	4.f	4.A	[2.FF
.	4r	4r	.
.	8cc	8a	.
=78	=78	=78	=78
2.ff_	4dd	4b-	2.FF_
.	8cc	8a	.
.	8.b-	8.g	.
.	16a	16f	.
.	8b-	8g	.
=79	=79	=79	=79
2ff_	4b	4g#	2FF_
.	8cc	8a	.
.	4a	4f	.
8ff]	.	.	8FF]
8ff#	8e-	8c	8AA
=80	=80	=80	=80
4gg	4.d	4.B-	4.BB-
8ff]	.	.	.
8.ee	4.B-	4.G	4.C
16dd	.	.	.
8ee	.	.	.
=81	=81	=81	=81
8ff	4.A	4.F	[2.F
8aa	.	.	.
8ccc	.	.	.
[4.ff	4r	4r	.
.	8cc#	8a	.
=82	=82	=82	=82
2.ff_	4dd	4b-	2.F_
.	8cc	8a	.
.	8.b-	8.g	.
.	16a	16f	.
.	8b-	8g	.
=83	=83	=83	=83
4.ff]	4b	4g#	4F]
.	8cc	8a	8E-
4.ff#	8.ee-	8.cc	4.D
.	16dd	16b-	.
.	8cc	8a	.
=84	=84	=84	=84
8gg	4b-	4g	4G
8bb-	.	.	.
8ddd	8r	8r	8r
8ddd	4b-	4g	4C
8ccc	.	.	.
8ee	8r	8r	8r
=85	=85	=85	=85
8ff	4a	4f	4F
8aa	.	.	.
8ccc	8r	8r	8r
8ccc	4a	4f	4D
8bb-	.	.	.
8aa	8r	8r	8r
=86	=86	=86	=86
8gg	4b-	4g	4BB-
8bb-	.	.	.
8ddd	8r	8r	8r
8ddd	4b-	4g	4C
8ccc	.	.	.
8ee	8r	8r	8r
=87	=87	=87	=87
8ff	4a	4f	4F
8aa	.	.	.
8ccc	8r	8r	8r
8ccc	4a	4f	4d
8bb-	.	.	.
8aa	8r	8r	8r
=88	=88	=88	=88
8gg	4b-	4g	4B-
8bb-	.	.	.
8ddd	8r	8r	8r
8ddd	4b-	4g	4c
8ccc	.	.	.
8ee	8r	8r	8r
=89	=89	=89	=89
4ff	4a	4f	4F
8r	8r	8r	8r
4fff	4aa	4cc	4f
8r	8r	8r	8r
=90	=90	=90	=90
4fff	4aa	4cc	4f
4.r	2r	2r	2r
8cc	.	.	.
=91	=91	=91	=91
2cc	[2.c	2A	2.FF_
8a	.	8F	.
8ff	.	8A	.
=92	=92	=92	=92
2cc	2.c_	2A	2.FF]
8a	.	8c	.
8f	.	8A	.
=93	=93	=93	=93
8e	2.c_	8B-	[2.C
8g	.	8G	.
8b-	.	8E	.
8b-	.	8E	.
8b-	.	8E	.
8b-	.	8E	.
=94	=94	=94	=94
4.b-	2.c_	4.E	4.C]
4a	.	4F	8FF
.	.	.	4r
8cc	.	8A	.
=95	=95	=95	=95
2cc	2.c_	2A	[2.FF
8a	.	8F	.
8ff	.	8A	.
=96	=96	=96	=96
2cc	2.c_	2A	2.FF]
8a	.	8c	.
8f	.	8A	.
=97	=97	=97	=97
2b-	2.c_	2G	2.CC
8g	.	8B-	.
8e	.	8G	.
=98	=98	=98	=98
8f	4c]	4A	4FF
8f	.	.	.
8a	2r	2r	2r
8cc	.	.	.
8ff	.	.	.
8aa	.	.	.
=99	=99	=99	=99
2ccc	8a	[2.f	[2.F
.	8c	.	.
.	8f	.	.
.	8a	.	.
8aa	8f	.	.
8fff	8cc	.	.
=100	=100	=100	=100
2ccc	8a	2f_	2.F]
.	8c	.	.
.	8f	.	.
.	8a	.	.
8aa	8cc	8f]	.
8ff	8a	8F	.
=101	=101	=101	=101
8ee	8b-	8G	8C
8gg	8g	8B-	8E
8bb-	8e	8c	8G
8bb-	8e	8g	8c
8bb-	8e	8g	8c
8bb-	8e	8g	8c
=102	=102	=102	=102
4.bb-	8e	4.g	4.c
.	8d	.	.
.	8e	.	.
4aa	8f	8f]	8F
.	8c	4r	4r
8ccc	8a	.	.
=103	=103	=103	=103
2ccc	8a	[2.f	[2.F
.	8c	.	.
.	8f	.	.
.	8a	.	.
8aa	8f	.	.
8fff	8cc	.	.
=104	=104	=104	=104
2ccc	8a	2f_	2.F]
.	8c	.	.
.	8f	.	.
.	8a	.	.
8aa	8cc	8f]	.
8ff	8a	8F	.
=105	=105	=105	=105
2bb-	8e	8G	8C
.	8g	8B-	8E
.	8e	8c	8G
.	8g	8e	8c
8gg	8b-	8e	8c
8ee	8b-	8g	8c
=106	=106	=106	=106
4ff	8a-	8f]	8F
.	8c	8A-	8F
4r	8c	8A-	8F
.	8c	8A-	8F
16f	4r	4r	4r
16e	.	.	.
16g	.	.	.
16f	.	.	.
=107	=107	=107	=107
8a-	8r	8r	8r
4.r	8f	8c	8F
.	8f	8c	8F
.	8f	8c	8F
16a-	4r	4r	4r
16g	.	.	.
16b-	.	.	.
16a-	.	.	.
=108	=108	=108	=108
8cc	8r	8r	8r
4.r	8a-	8f	8F
.	8a-	8f	8F
.	8a-	8f	8F
16ff	4r	4r	4r
16ee	.	.	.
16gg	.	.	.
16ff	.	.	.
=109	=109	=109	=109
4.aa-	8r	8r	8r
.	8cc	8f	8F
.	8cc	8f	8F
4.cc	8r	8r	8r
.	8f	8c	8A-
.	8f	8c	8A-
=110	=110	=110	=110
4b	8r	8r	8r
.	8f	8d	8G
4r	8f	8d	8G
.	8f	8d	8G
16b	4r	4r	4r
16a	.	.	.
16cc	.	.	.
16b	.	.	.
=111	=111	=111	=111
8dd	8r	8r	8r
4.r	8b	8f	8G
.	8b	8f	8G
.	8b	8f	8G
16dd	4r	4r	4r
16cc	.	.	.
16ee-	.	.	.
16dd	.	.	.
=112	=112	=112	=112
8ff	8r	8r	8r
4.r	8dd	8b	8G
.	8dd	8b	8G
.	8dd	8b	8G
16bb	4r	4r	4r
16aa	.	.	.
16ccc	.	.	.
16bb	.	.	.
=113	=113	=113	=113
4.ddd	8r	8r	8r
.	8ff	8b	8G
.	8ff	8b	8G
4.ff	8r	8r	8r
.	8dd	8b	8G
.	8dd	8b	8G
=114	=114	=114	=114
4ee-	8r	8r	8r
.	16c	16E-	8C
.	16B	16D	.
4r	16d	16F	8C
.	16c	16E-	.
.	8e-	8G	8C
16e-	4r	4r	4r
16d	.	.	.
16f	.	.	.
16e-	.	.	.
=115	=115	=115	=115
8g	8r	8r	8r
4.r	16e-	16c	8C
.	16d	16B	.
.	16f	16d	8C
.	16e-	16c	.
.	8g	8e-	8C
16cc	4r	4r	4r
16b	.	.	.
16dd	.	.	.
16cc	.	.	.
=116	=116	=116	=116
8ee-	8r	8r	8r
4.r	16cc	16e-	8C
.	16b	16d	.
.	16dd	16f	8C
.	16cc	16e-	.
.	8ee-	8g	8C
16ee-	4r	4r	4r
16dd	.	.	.
16ff	.	.	.
16ee-	.	.	.
=117	=117	=117	=117
4.gg	4.ee-	2.r	8r
.	.	.	16C
.	.	.	16BB
.	.	.	16D
.	.	.	16C
4.b-	4.g	.	8E-
.	.	.	16BB-
.	.	.	16AA
.	.	.	16C
.	.	.	16BB-
=118	=118	=118	=118
8a	8f#	8r	8D
4.r	4.r	16F#	16D
.	.	16E	16C#
.	.	16G	16E
.	.	16F#	16D
.	.	8A	8F#
16a	16f#	4r	4r
16g	16e	.	.
16b-	16g	.	.
16a	16f#	.	.
=119	=119	=119	=119
8cc	8a	8r	8r
4.r	4.r	16f#	16d
.	.	16e	16c#
.	.	16g	16e
.	.	16f#	16d
.	.	8a	8f#
16ff#	16a	4r	4r
16ee	16g	.	.
16gg	16b-	.	.
16ff#	16a	.	.
=120	=120	=120	=120
8aa	8cc	2r	8r
16cc	4.r	.	16A
16b-	.	.	16G
16dd	.	.	16B-
16cc	.	.	16A
8ee-	.	.	8c
8r	16aa	16f#	4r
.	16gg	16e	.
8r	16bb-	16g	.
.	16aa	16f#	.
=121	=121	=121	=121
2r	4.ccc	4.a	8r
.	.	.	16D
.	.	.	16C#
.	.	.	16E
.	.	.	16D
.	4.cc	4.A	8F#
16gg	.	.	4r
16ff#	.	.	.
16aa	.	.	.
16gg	.	.	.
=122	=122	=122	=122
8bb-	4.b-	4.G	8r
4.r	.	.	16GG
.	.	.	16FF#
.	.	.	16AA
.	.	.	16GG
.	4.dd-	4.f	8BB-
16gg	.	.	4r
16ff	.	.	.
16aa-	.	.	.
16gg	.	.	.
=123	=123	=123	=123
8bb-	4.cc	4.e	8r
4.r	.	.	16C
.	.	.	16BB
.	.	.	16D
.	.	.	16C
.	4.b-	4.g	8E
16ff	.	.	4r
16ee	.	.	.
16gg	.	.	.
16ff	.	.	.
=124	=124	=124	=124
8aa-	4.a-	4.f	8r
4.r	.	.	16FF
.	.	.	16EE
.	.	.	16GG
.	.	.	16FF
.	4.e-	4.c-	8AA-
16ff	.	.	4r
16ee-	.	.	.
16gg-	.	.	.
16ff	.	.	.
=125	=125	=125	=125
8aa-	4.d	4.B-	8r
4.r	.	.	16BB-
.	.	.	16AA
.	.	.	16C
.	.	.	16BB-
.	4.a-	4.f	4.D
8ff	.	.	.
8b-	.	.	.
=126	=126	=126	=126
16bb-	16g	8e-	4.E-
16ccc	16e-	.	.
16bb-	16B-	8e-	.
16ccc	16e-	.	.
8bb-	16g	8B-	.
.	16e-	.	.
8r	16a-	16b-	4.D
.	16f	16cc	.
8ff	16B-	16b-	.
.	16f	16cc	.
8b-	16a-	8b-	.
.	16f	.	.
=127	=127	=127	=127
16bb-	16g	8r	4.E-
16ccc	16e-	.	.
16bb-	16B-	8e-	.
16ccc	16e-	.	.
8bb-	16g	8B-	.
.	16e-	.	.
8r	16a-	16b-	4.D
.	16f	16cc	.
8ff	16B-	16b-	.
.	16f	16cc	.
8b-	16a-	8b-	.
.	16f	.	.
=128	=128	=128	=128
16bb-	4e-	16g	4E-
16ccc	.	16a-	.
16bb-	.	16g	.
16ccc	.	16a-	.
8bb-	2r	8g	2r
16gg	.	16e-	.
16aa-	.	16f	.
16gg	.	16e-	.
16aa-	.	16f	.
8gg	.	8e-	.
=129	=129	=129	=129
16ee-	16e-	16c	16C
16ff	16f	16d	16D
16ee-	16e-	16c	16C
16ff	16f	16d	16D
8ee-	8e-	8c	8C
16cc	16c	16A	16AA
16dd	16d	16B-	16BB-
16cc	16c	16A	16AA
16dd	16d	16B-	16BB-
8cc	8c	8A	8AA
=130	=130	=130	=130
4.a	4.A	8F	4FF
.	.	8c	.
.	.	8F	4r
4.ee-	4.cc	16f	.
.	.	16g	.
.	.	16f	8AA
.	.	16g	.
.	.	8f	8FF
=131	=131	=131	=131
4.dd	4.b-	8r	16F
.	.	.	16G
.	.	8d	16F
.	.	.	16G
.	.	8B-	8F
4.bb-	4.gg	16e	8r
.	.	16f	.
.	.	16e	8BB-
.	.	16f	.
.	.	8e	8FF
=132	=132	=132	=132
4.aa	4.ff	8r	16F
.	.	.	16G
.	.	8f	16F
.	.	.	16G
.	.	8c	8F
4.ccc	4.aa	16e-	8r
.	.	16f	.
.	.	16e-	8C
.	.	16f	.
.	.	8e-	8FF
=133	=133	=133	=133
4.ddd-	4.bb-	8r	16F
.	.	.	16G
.	.	8d-	16F
.	.	.	16G
.	.	8B-	8F
4.ee	16b-	16g	8r
.	16cc	16a	.
.	16b-	16g	8F
.	16cc	16a	.
.	8b-	8g	8FF
=134	=134	=134	=134
8ff	8a	8f	8F
4r	2r	2r	2r
8a	.	.	.
8f	.	.	.
8a	8r	8r	8r
=135	=135	=135	=135
8cc	4.r	2.r	2.r
4r	.	.	.
8aa	8cc	.	.
8ff	8a	.	.
8aa	8cc	.	.
=136	=136	=136	=136
8ccc	8ee-	4.r	4.r
4r	4r	.	.
8ccc	8aa	8c	8A
8aa	8ff	8e-	8c
8ccc	8aa	8c	8A
=137	=137	=137	=137
8eee-	8ccc	8A	8F
2r	2r	2r	2r
8ff	8dd	8r	8r
=138	=138	=138	=138
8ff	8dd	4b-	4B-
8dd	8b-	.	.
8dd	8b-	8f	8r
8dd	8b-	8f	4BB-
8b-	8f	8d	.
8b-	8f	8d	8r
=139	=139	=139	=139
4b-	4f	4d	4D
8dd	8b-	8f	8BB-
4cc	4a	4.f	4F
8dd	8b-	.	8D
=140	=140	=140	=140
8.ee-	4cc	8.g	4C
16dd	.	16f	.
8cc	8r	8e-	8r
8g	4.c	4e-	8E-
8b-	.	.	8C
8a	.	8c	8F
=141	=141	=141	=141
4b-	4f	8B-	4D
.	.	8d	.
8dd	8b-	8f	8BB-
4cc	4a	4f	4F
8ff	8dd	8r	8r
=142	=142	=142	=142
16ff	16dd	4b-	4B-
16gg	16ee-	.	.
8ff	8dd	.	.
8dd	8b-	8f	8r
16dd	16b-	16f	4BB-
16ee-	16cc	16g	.
8dd	8b-	8f	.
8b-	8f	8d	8r
=143	=143	=143	=143
4b-	4f	4d	4D
8dd	8b-	8f	8BB-
4cc	4a	4.f	4F
8dd	8b-	.	8D
=144	=144	=144	=144
8.ee-	4cc	8.g	4C
16dd	.	16f	.
8cc	8r	8e-	8r
8g	4.c	4.e-	8E-
8b-	.	.	8C
8a	.	.	8F
=145	=145	=145	=145
4b-	8B-	4d	8BB-
.	16B-	.	8BB-
.	16A	.	.
8dd	16B-	8f	8BB-
.	16A	.	.
4b-	4B-	4d	[4.BB-
8r	8f	8d	.
=146	=146	=146	=146
2.r	4g	4e-	2.BB-_
.	8f	8d	.
.	8.e-	8.c	.
.	16d	16B-	.
.	8e-	8c	.
=147	=147	=147	=147
2r	8f	2d	2.BB-]
.	8a	.	.
.	8b-	.	.
.	4.f	.	.
8r	.	8a	.
8dd	.	8b-	.
=148	=148	=148	=148
16ee-	2.a 2.c	2.f	2.FF
16ff	.	.	.
16gg	.	.	.
16ff	.	.	.
16ee-	.	.	.
16dd	.	.	.
16cc	.	.	.
16b-	.	.	.
16a	.	.	.
16g	.	.	.
16f	.	.	.
16e-	.	.	.
=149	=149	=149	=149
16d	[2b-	[2f	2BB-
16e-	.	.	.
16f	.	.	.
16g	.	.	.
16a	.	.	.
16b-	.	.	.
4f	.	.	.
.	8b- 8d]	8f 8B-]	8BB-
8r	8f	8d	8BB-
=150	=150	=150	=150
2.r	4g	4e-	[2.BB-
.	8f	8d	.
.	8.e-	8.c	.
.	16d	16B-	.
.	8e-	8c	.
=151	=151	=151	=151
2r	8f	2d	2.BB-]
.	8a	.	.
.	8b-	.	.
.	4.f	.	.
8r	.	8a	.
8dd	.	8b-	.
=152	=152	=152	=152
16ee-	2.cc 2.e-	4.a	2.FF
16dd	.	.	.
16cc	.	.	.
16b-	.	.	.
16a	.	.	.
16b-	.	.	.
16cc	.	[4.f	.
16dd	.	.	.
16ee-	.	.	.
16ff	.	.	.
16gg	.	.	.
16aa	.	.	.
=153	=153	=153	=153
8bb-	8b- 8d	8f]	8BB-
16r	4r	4r	4r
16b-	.	.	.
16a	.	.	.
16b-	.	.	.
16cc	4.cc 4.e-	[4.f	4.F
16dd	.	.	.
16ee-	.	.	.
16ff	.	.	.
16gg	.	.	.
16aa	.	.	.
=154	=154	=154	=154
8bb-	8b- 8d	8f]	8B-
16r	4r	4r	4r
16b-	.	.	.
16a	.	.	.
16b-	.	.	.
16cc	4.cc 4.e-	[4.f	4.F
16dd	.	.	.
16ee-	.	.	.
16ff	.	.	.
16gg	.	.	.
16aa	.	.	.
=155	=155	=155	=155
8bb-	8b- 8d	8f]	8B-
4r	8bb-	8b-	8B-
.	8bb-	8b-	8B-
8gg	8r	8r	8r
4r	8gg	8g	8G
.	8gg	8g	8G
=156	=156	=156	=156
8dd	8r	8r	8r
4r	8dd	8d	8D
.	8dd	8d	8D
8ee	8r	8r	8r
4r	8ee	8e	8E
.	8ee	8e	8E
=157	=157	=157	=157
[2.ff	8r	8r	[2.F
.	8c	8A	.
.	8e-	8c	.
.	8d	8B-	.
.	8c	8A	.
.	8B-	8G	.
=158	=158	=158	=158
2.ff_	8A	8F	2.F_
.	8c	8A	.
.	8e-	8c	.
.	8d	8B-	.
.	8c	8A	.
.	8B-	8G	.
=159	=159	=159	=159
8ff]	8A	8F	8F]
8gg	8r	8r	8r
8ee	8B-	8G	8C
8ff	8A	8F	8F
8aa	8r	8r	8r
8ee	8B-	8G	8C
=160	=160	=160	=160
8ff	8A	8F	8F
8ccc	8r	8r	8r
8ee	8b-	8g	8c
8ff	8a	8f	8F
8fff	8r	8r	8r
8ee	8b-	8g	8c
=161	=161	=161	=161
8ff	8a	8f	8F
8ff	8a	8c	8F
8ff	8a	8c	8F
8ff	8a	8c	8F
8ff	8a	8c	8F
8ff	8a	8c	8F
=162	=162	=162	=162
4ff	4a	4c	4F
8r	2r	2r	2r
4ff	.	.	.
8r	.	.	.
=163	=163	=163	=163
2.ff	2r	2r	2.r
.	8r	8r	.
.	8f	8d	.
=164	=164	=164	=164
2.ff	8f	8d	2.r
.	8d	8B-	.
.	8d	8B-	.
.	8d	8B-	.
.	8B-	8D	.
.	8B-	8D	.
=165	=165	=165	=165
2.ff	4B-	4F	4D
.	8d	8B-	8BB-
.	4c	4A	4F
.	8d	8B	8r
=166	=166	=166	=166
2.ff	16e-	16c	2.r
.	16f	16d	.
.	8e-	8c	.
.	8c	8A	.
.	16c	16A	.
.	16d	16B-	.
.	8c	8A	.
.	8A	8C	.
=167	=167	=167	=167
4.ff	4A	4C	4FF
.	8e-	8c	8AA
4f	4d	8B-	4BB-
.	.	8b-	.
8bb-	8gg	8b-	8r
=168	=168	=168	=168
8bb-	8gg	2.b-	4E-
8gg	8ee-	.	.
8gg	8ee-	.	2r
8gg	8ee-	.	.
8ee-	8g	.	.
8ee-	8g	.	.
=169	=169	=169	=169
4ee-	4b-	2.b-	4G
8gg	8ee-	.	8E-
4ff	4dd	.	4B-
8gg	8ee	.	8r
=170	=170	=170	=170
16aa-	16ff	2.b-	2.r
16bb-	16gg	.	.
8aa-	8ff	.	.
8ff	8dd	.	.
16ff	16dd	.	.
16gg	16ee-	.	.
8ff	8dd	.	.
8dd	8f	.	.
=171	=171	=171	=171
4dd	4f	4.b-	4BB-
8aa-	8ff	.	8D
4gg	4ee-	4B-	4E-
[8gg	8b	8f	8D
=172	=172	=172	=172
8gg]	4.cc	[2e-	4.C
16aa	.	.	.
16bb	.	.	.
16ccc	.	.	.
16ddd	.	.	.
16eee-	4g	.	4.c
16ddd	.	.	.
16ccc	.	8e-]	.
16bb-	.	.	.
16aa	8ee-	8cc	.
16gg	.	.	.
=173	=173	=173	=173
16gg	4.ee-	4.cc	4.A
16ff	.	.	.
16gg	.	.	.
16aa	.	.	.
16bb-	.	.	.
16ccc	.	.	.
16ddd	[4.dd	[4.b-	4.B-
16ccc	.	.	.
16bb-	.	.	.
16aa	.	.	.
16gg	.	.	.
16ff	.	.	.
=174	=174	=174	=174
16ff	4.dd]	4.b-]	4.G
16ee-	.	.	.
16ff	.	.	.
16gg	.	.	.
16aa	.	.	.
16bb-	.	.	.
16ccc	[4.cc	[4.a	4.A
16bb-	.	.	.
16aa	.	.	.
16gg	.	.	.
16ff	.	.	.
16ee-	.	.	.
=175	=175	=175	=175
16ee-	4.cc]	4.a]	4.F#
16dd	.	.	.
16ee	.	.	.
16ff#	.	.	.
16gg	.	.	.
16aa	.	.	.
16bb-	4.b-	[4.g	4.G
16aa	.	.	.
16gg	.	.	.
16ff	.	.	.
16ee-	.	.	.
16dd	.	.	.
=176	=176	=176	=176
8cc	8cc	8g]	8E-
8gg	4r	4r	4r
8ff	.	.	.
8ee-	8g	8G	8C
8dd	8f	8B	8D
8cc	8e-	8c	8E-
=177	=177	=177	=177
4b-	4d	[2F	4.F
4a	4.c	.	.
.	.	.	4.AA
8g	.	8F]	.
8f	8e-	8c	.
=178	=178	=178	=178
8f	8d	4.B-	4.BB-
8b-	8f	.	.
8f	8d	.	.
8f	8d	8F	8D
8e-	8c	8G	8E-
8d	8B-	8G	8E
=179	=179	=179	=179
8d	8B-	[2.F	4.F
8c	8A	.	.
4g	4e-	.	.
.	.	.	4.AA
8f	8d	.	.
8e-	8c	.	.
=180	=180	=180	=180
8e-	8c	2F_	4.BB-
8d	8B-	.	.
4f	4d	.	.
.	.	.	4D
8e-	8c	8F]	.
8d	8B-	8G	8E-
=181	=181	=181	=181
8d	8B-	4.F]	4.F
8c	8A	.	.
4gg	4ee-	.	.
.	.	[4.f	4.A
8ff	8dd	.	.
8ee-	8cc	.	.
=182	=182	=182	=182
8ee-	8cc	4f]	4.B-
8dd	8b-	.	.
4ff	4dd	8d	.
.	.	4.B-	4.G
8dd	8r	.	.
8b-	8b-	.	.
=183	=183	=183	=183
16ff	4.a	4.c	4.F
16gg	.	.	.
16ff	.	.	.
16gg	.	.	.
8ff	.	.	.
4.r	8r	4.r	4.r
.	8dd	.	.
.	8b-	.	.
=184	=184	=184	=184
2.r	16f	2r	2.r
.	16g	.	.
.	16f	.	.
.	16g	.	.
.	8f	.	.
.	4.r	.	.
.	.	8d	.
.	.	8B-	.
=185	=185	=185	=185
2.r	2.r	16f	2r
.	.	16g	.
.	.	16f	.
.	.	16g	.
.	.	8f	.
.	.	4.r	.
.	.	.	8D
.	.	.	8BB-
=186	=186	=186	=186
2.r	2.r	4.r	16FF
.	.	.	16GG
.	.	.	16FF
.	.	.	16GG
.	.	.	8FF
.	.	16F	4.r
.	.	16G	.
.	.	16F	.
.	.	16G	.
.	.	8F	.
=187	=187	=187	=187
4.r	16f	2.r	2.r
.	16g	.	.
.	16f	.	.
.	16g	.	.
.	8f	.	.
16ff	4.r	.	.
16gg	.	.	.
16ff	.	.	.
16gg	.	.	.
8ff	.	.	.
=188	=188	=188	=188
16e-	4.A	2.r	4.FF
16f	.	.	.
16e-	.	.	.
16f	.	.	.
8e-	.	.	.
8r	4.B-	.	4.GG-
8e-	.	.	.
8e-	.	.	.
=189	=189	=189	=189
4b-	4.c	16E-	4.FF
.	.	16F	.
.	.	16E-	.
.	.	16F	.
8a	.	8E-	.
4.r	4.B-	8r	4.GG-
.	.	8E-	.
.	.	8E-	.
=190	=190	=190	=190
16ee-	4.c	4B-	4.FF
16ff	.	.	.
16ee-	.	.	.
16ff	.	.	.
8ee-	.	8A	.
8r	4.B-	4.r	4.G-
8ee-	.	.	.
8ee-	.	.	.
=191	=191	=191	=191
4bb-	4.c	16e-	4.F
.	.	16f	.
.	.	16e-	.
.	.	16f	.
8aa	.	8e-	.
4eee-	4cc	[4.f	4.E-
16ccc	16a	.	.
16aa	16cc	.	.
=192	=192	=192	=192
16bb-	8b-	8f]	8D
16ccc	.	.	.
16bb-	4r	4r	4r
16ccc	.	.	.
8ddd	.	.	.
16gg	8b-	8e-	8E-
16aa	.	.	.
16gg	4r	4r	4r
16aa	.	.	.
8bb-	.	.	.
=193	=193	=193	=193
16ee-	8b-	8B-	8G
16ff	.	.	.
16ee-	4r	4r	4r
16ff	.	.	.
8gg	.	.	.
16cc	8f	8c	8A
16dd	.	.	.
16cc	4r	4r	4r
16dd	.	.	.
8ee-	.	.	.
=194	=194	=194	=194
8dd	8f	4.B-	4.B-
8gg	8ee-	.	.
8ff	8dd	.	.
8ee-	8cc	8g	8E-
8dd	8b-	8f	8F
8cc	8a	8e-	8F
=195	=195	=195	=195
4b-	4b-	4d	4BB-
2r	8r	2r	2r
.	8b-	.	.
.	8cc	.	.
.	8dd	.	.
=196	=196	=196	=196
2.r	16f	4e-	4A
.	16g	.	.
.	16f	.	.
.	16g	.	.
.	8f	8d	8B-
.	8b-	4.r	4.r
.	8cc	.	.
.	8dd	.	.
=197	=197	=197	=197
2.r	16f	4e-	4A
.	16g	.	.
.	16f	.	.
.	16g	.	.
.	8f	8d	8B-
.	8b-	4.r	4.r
.	8cc	.	.
.	8dd	.	.
=198	=198	=198	=198
2.r	16d	4c	4F#
.	16e-	.	.
.	16d	.	.
.	16e-	.	.
.	8d	8B-	8G
.	16g	4f	4B
.	16a-	.	.
.	16g	.	.
.	16a-	.	.
.	8g	8e-	8c
=199	=199	=199	=199
2.r	16cc	4B-	4E
.	16dd	.	.
.	16cc	.	.
.	16dd	.	.
.	8cc	8A	8F
.	16ff	4e-	4A
.	16gg	.	.
.	16ff	.	.
.	16gg	.	.
.	8ff	8d	8B-
=200	=200	=200	=200
2.r	8r	8r	4E-
.	8gg	8e-	.
.	8ff	8d	8r
.	8ee-	8c	4F
.	8dd	8B-	.
.	8cc	8A	8r
=201	=201	=201	=201
4.r	4b-	4B-	4BB-
.	2r	2r	2r
8bb-	.	.	.
8ccc	.	.	.
8ddd	.	.	.
=202	=202	=202	=202
16ff	4ee-	4a	2.r
16gg	.	.	.
16ff	.	.	.
16gg	.	.	.
8ff	8dd	8b-	.
8bb-	4.r	4.r	.
8ccc	.	.	.
8ddd	.	.	.
=203	=203	=203	=203
16ff	4ee-	4a	2.r
16gg	.	.	.
16ff	.	.	.
16gg	.	.	.
8ff	8dd	8b-	.
8bb-	4.r	4.r	.
8ccc	.	.	.
8ddd	.	.	.
=204	=204	=204	=204
16b-	4a-	4d	2.r
16cc	.	.	.
16b-	.	.	.
16cc	.	.	.
8b-	8g	8e-	.
16cc	4b-	4e	.
16dd	.	.	.
16cc	.	.	.
16dd	.	.	.
8cc	8a	8f	.
=205	=205	=205	=205
16dd	16d	4c	4F#
16ee-	16e-	.	.
16dd	16d	.	.
16ee-	16e-	.	.
8dd	8d	8B-	8G
16ff	16f	4e-	4A
16gg	16g	.	.
16ff	16f	.	.
16gg	16g	.	.
8ff	8f	8d	8B-
=206	=206	=206	=206
8r	8r	8r	4E-
8gg	8g	8e-	.
8ff	8f	8d	8r
8ee-	8e-	8c	4F
8dd	8d	8B-	.
8cc	8c	8A	8r
=207	=207	=207	=207
2.b-	4B-	16b-	4BB-
.	.	16cc	.
.	.	16b-	.
.	.	16cc	.
.	8r	8dd	2r
.	16b-	16g	.
.	16cc	16a	.
.	16b-	16g	.
.	16cc	16a	.
.	8dd	8b-	.
=208	=208	=208	=208
2.gg	16cc	16g	16e-
.	16dd	16a	16f
.	16cc	16g	16e-
.	16dd	16a	16f
.	8ee-	8b-	8g
.	16a	16e-	16c
.	16b-	16f	16d
.	16a	16e-	16c
.	16b-	16f	16d
.	8cc	8g	8e-
=209	=209	=209	=209
16ff	4ee-	4c	4A
16gg	.	.	.
16ff	.	.	.
16gg	.	.	.
8ff	8dd	8d	8B-
8ee-	8cc	8g	8E-
8dd	8b-	8f	8F
8cc	8a	8e-	8F
=210	=210	=210	=210
2.b-	4b-	16d	16B-
.	.	16e-	16c
.	.	16d	16B-
.	.	16e-	16c
.	2r	8f	8d
.	.	16B-	16G
.	.	16c	16A
.	.	16B-	16G
.	.	16c	16A
.	.	8d	8B-
=211	=211	=211	=211
2.gg	16c	16G	16E-
.	16d	16A	16F
.	16c	16G	16E-
.	16d	16A	16F
.	8e-	8B-	8G
.	16A	16E-	16C
.	16B-	16F	16D
.	16A	16E-	16C
.	16B-	16F	16D
.	8c	8G	8E-
=212	=212	=212	=212
2.gg-	2.e-	2.c	2.AA
=213	=213	=213	=213
2.ff	2.a-	2.d	2.BB
=214	=214	=214	=214
2.ee	2.b-	2.g	2.C#
=215	=215	=215	=215
4.ff	4.b	4.a-	4.D
4.gg	4.dd-	[4.b-	4.E
=216	=216	=216	=216
8ff	8dd	8b-]	8F
8ee	2r	2r	2r
8ee-	.	.	.
8dd	.	.	.
8dd-	.	.	.
8cc	8r	8r	8r
=217	=217	=217	=217
4.b-	4.f	4.d	2.FF
4.cc	4.a	4.e-	.
=218	=218	=218	=218
[2.b-	4.b-	4.d	[2.BB-
.	4r	4r	.
.	8f	8d	.
=219	=219	=219	=219
2.b-_	4g	4e-	2.BB-_
.	8f	8d	.
.	8.e-	8.c	.
.	16d	16B-	.
.	8e-	8c	.
=220	=220	=220	=220
2b-_	4e	4c#	2BB-_
.	8f	8d	.
.	4d	4B-	.
8b-]	.	.	8BB-]
8b]	8A-	8F	8D
=221	=221	=221	=221
4cc	4.G	4.E-	4.E-
8b-	.	.	.
8.a	4.e-	4.c	4.F
16g	.	.	.
8a	.	.	.
=222	=222	=222	=222
8b-	4.d	4.B-	[2.B-
8dd	.	.	.
8ff	.	.	.
[4.bb-	4r	4r	.
.	8ff#	8dd	.
=223	=223	=223	=223
2.bb-_	4gg	4ee-	2.B-_
.	8ff	8dd	.
.	8.ee-	8.cc	.
.	16dd	16b-	.
.	8ee-	8cc	.
=224	=224	=224	=224
4.bb-]	4ee	4cc#	4B-]
.	8ff	8dd	8A-
4.bb	8.ff	8.a-	4.G
.	16ee-	16g	.
.	8dd	8f	.
=225	=225	=225	=225
8ccc	4cc	4e-	4c
8eee-	.	.	.
8ggg	8r	8r	8r
8ggg	4cc	4e-	4F
8fff	.	.	.
8aa	8r	8r	8r
=226	=226	=226	=226
8bb-	4b-	4d	4B-
8ddd	.	.	.
8fff	8r	8r	8r
8fff	4dd	4b-	4G
8eee-	.	.	.
8ddd	8r	8r	8r
=227	=227	=227	=227
8r	8gg	8ee-	8E-
8bb	4r	4r	4r
8ccc	.	.	.
8r	8ee-	8cc	8F
8eee-	4r	4r	4r
8aa	.	.	.
=228	=228	=228	=228
8r	8dd	8b-	8G
8ccc	4r	4r	4r
8bb-	.	.	.
8r	8b-	8f	8D
8ff	4r	4r	4r
8dd	.	.	.
=229	=229	=229	=229
8r	8g	8e-	8E-
8b	4r	4r	4r
8cc	.	.	.
8r	8e-	8A	8F
8ee-	4r	4r	4r
8cc	.	.	.
=230a	=230a	=230a	=230a
8b-	8d	8B-	8BB-]
8r	8r	4r	8r
8r	8r	.	8r
8bb-	8dd	8f	8B-
8r	8r	4r	8r
8r	8r	.	8r
=231a	=231a	=231a	=231a
4bb-	4dd	4f	4B-
8r	8r	2r	8r
8r	8r	.	8r
8r	8r	.	8r
8r	8r	.	8r
=230b	=230b	=230b	=230b
8b-	8d	8B-	8BB-
4r	4r	4r	4r
8bb-	8dd	8f	8B-
4r	4r	4r	4r
=231b	=231b	=231b	=231b
4bb-	4dd	4f	4B-
2r	2r	2r	2r
=232	=232	=232	=232
4b	4A-	4F	4DD
8r	8r	8r	8r
4aa-	4b	4f	4D
8r	8r	8r	8r
=233	=233	=233	=233
4aa-	4b	4f	4D
2r	2r	2r	2r
=234	=234	=234	=234
2.ff#	2.r	2.r	2.r
=235	=235	=235	=235
2.gg	2.r	2.r	2.r
=236	=236	=236	=236
[2.cc	[2.b- 2.g	2.e-	2.r
=237	=237	=237	=237
4.cc]	2.b- 2.g]	2.e	2.r
4dd-	.	.	.
8cc	.	.	.
=238	=238	=238	=238
4cc	4a	4f	[2.FF
4.r	2r	2r	.
8ff	.	.	.
=239	=239	=239	=239
8ff	4r	2.r	2.FF_
8dd	.	.	.
8dd	8b-	.	.
8dd	8b-	.	.
8b-	8g	.	.
8b-	8g	.	.
=240	=240	=240	=240
4b-	8g	8r	2.FF_
.	8e-	8F	.
8gg	8e-	8F	.
4gg	4e-	8F	.
.	.	8F	.
8ee-	8cc	8F	.
=241	=241	=241	=241
8ee-	4cc	[2.F	2.FF_
8cc	.	.	.
8cc	8a	.	.
8cc	8a	.	.
8a	8f	.	.
8a	8f	.	.
=242	=242	=242	=242
4a	8f	8F]	2.FF_
.	8d	8F	.
8ff	8d	8F	.
4ff	4d	8F	.
.	.	8F	.
8dd	8b-	8F	.
=243	=243	=243	=243
8dd	4b-	[2.F	2.FF_
8b-	.	.	.
8b-	8g	.	.
8b-	8g	.	.
8g	8e-	.	.
8g	8e-	.	.
=244	=244	=244	=244
8g	8e-	4.F]	2.FF_
8ee-	8c	.	.
8cc	8e-	.	.
8a	8f	[4.F	.
8ff	8d	.	.
8dd	8f	.	.
=245	=245	=245	=245
8b-	8g	4.F]	2FF_
8gg	8e-	.	.
8ee-	8g	.	.
8cc	8a	[4.F	.
8ff	8f	.	8FF]
8ee-	8a	.	8F
=246	=246	=246	=246
4dd	4b-	4F]	8F
.	.	.	8D
2r	4.r	8f	8D
.	.	8f	8D
.	.	8d	8BB-
.	8b-	8d	8BB-
=247	=247	=247	=247
4r	8b-	8d	4BB-
.	8g	8B-	.
8bb-	8g	8B-	8E-
8bb-	8g	4B-	4E-
8gg	8e-	.	.
8gg	8e-	8b-	8E-
=248	=248	=248	=248
8gg	4e-	8b-	8E-
8ee-	.	8cc	8C
8ee-	8g	8cc	8C
4ee-	8g	4cc	8C
.	8a	.	8AA
8ccc	8a	8r	8AA
=249	=249	=249	=249
4ccc	8a	2r	4AA
.	8f	.	.
8aa	8f	.	8D
8aa	8f	.	4D
8ff	8d	8a	.
8ff	8d	8a	8D
=250	=250	=250	=250
8ff	4d	8a	8D
8dd	.	8b-	8BB-
8dd	8f	8b-	8BB-
4dd	8f	4b-	8BB-
.	8g	.	8GG
8bb-	8g	8r	8GG
=251	=251	=251	=251
4bb-	8g	2r	4GG
.	8e-	.	.
8gg	8e-	.	8C
8gg	4e-	.	4C
8ee-	.	8c	.
8ee-	8e-	8c	8C
=252	=252	=252	=252
8ee-	8e-	8c	8C
8cc	8c	8A	8AA
8cc	8c	8A	8AA
8cc	8c	8A	8AA
8a	8A	8F	8FF]
8a	8A	8F	8FF
=253	=253	=253	=253
4aa	4g-	4c	4E-
8r	8r	8r	8r
4bb-	4g	4d-	4E
8r	8r	8r	8r
=254	=254	=254	=254
2dd	2b-	4.r	2.r
.	.	[4.d	.
8ee-	8cc	.	.
8ee	8cc#	.	.
=255	=255	=255	=255
2ff	2dd	8d]	2.F
.	.	8e-	.
.	.	8e	.
.	.	4f	.
8ee-	8cc	.	.
8cc	8a	8e-	.
=256	=256	=256	=256
8b-	8b-	4d	4BB-
8dd	8d	.	.
8b-	8B-	8r	8r
16ff	16f	4e- 4c	4AA
16gg	16g	.	.
16ff	16f	.	.
16gg	16g	.	.
8ff	8f	8r	8r
=257	=257	=257	=257
8r	8r	4d 4B-	4BB-
8bb-	8b-	.	.
8ddd	8dd	8r	8r
16ff	16f	4e- 4c	4AA
16gg	16g	.	.
16ff	16f	.	.
16gg	16g	.	.
8ff	8f	8r	8r
=258	=258	=258	=258
8r	8r	4d 4B-	4BB-
8dd	8d	.	.
8b-	8B-	8r	8r
16ff	16f	8e- 8c	8A
16gg	16g	.	.
16ff	16f	8e- 8c	8A
16gg	16g	.	.
8ff	8f	8e- 8c	8A
=259	=259	=259	=259
8r	8r	4d 4B-	4B-
8bb-	8b-	.	.
8ddd	8dd	8r	8r
16ff	16f	8e- 8c	8A
16gg	16g	.	.
16ff	16f	8e- 8c	8A
16gg	16g	.	.
8ff	8f	8e- 8c	8A
=260	=260	=260	=260
8ff 8b-	8dd 8f	16d	16B-
.	.	16e-	16c
4r	4r	16d	16B-
.	.	16e-	16c
.	.	8f	8d
8bb- 8dd	8gg 8b-	16B-	16G
.	.	16c	16A
4r	4r	16B-	16G
.	.	16c	16A
.	.	8d	8B-
=261	=261	=261	=261
8r	8r	8G	8E-
8gg	8ee-	4r	4r
8ee-	8cc	.	.
8r	8r	8A	8F
8cc	8e-	4r	4r
8a	8c	.	.
=262	=262	=262	=262
8b-	4.f	2r	4.D
8dd	.	.	.
8b-	.	.	.
16ff	4.a 4.c	.	4.E-
16gg	.	.	.
16ff	.	8c	.
16gg	.	.	.
8ff	.	8F	.
=263	=263	=263	=263
8r	4.b- 4.d	16f	4.D
.	.	16g	.
8bb-	.	16f	.
.	.	16g	.
8ddd	.	8f	.
16ff	4.a 4.c	8r	4.E-
16gg	.	.	.
16ff	.	8a	.
16gg	.	.	.
8ff	.	8cc	.
=264	=264	=264	=264
8r	8b- 8d	16f	8D
.	.	16g	.
8dd	8b- 8d	16f	8D
.	.	16g	.
8b-	8b- 8d	8f	8D
16ff	8cc 8a	8r	8E-
16gg	.	.	.
16ff	8cc 8a	8c	8E-
16gg	.	.	.
8ff	8cc 8a	8F	8E-
=265	=265	=265	=265
8r	8dd 8b-	16f	8D
.	.	16g	.
8bb-	8dd 8b-	16f	8D
.	.	16g	.
8ddd	8dd 8b-	8f	8D
16ff	8cc 8a	8r	8E-
16gg	.	.	.
16ff	8cc 8a	8a	8E-
16gg	.	.	.
8ff	8cc 8a	8cc	8E-
=266	=266	=266	=266
16bb-	16b-	8f	8D
16ccc	16cc	.	.
16bb-	16b-	4r	4r
16ccc	16cc	.	.
8ddd	8dd	.	.
16gg	16g	8e-	8E-
16aa	16a	.	.
16gg	16g	4r	4r
16aa	16a	.	.
8bb-	8b-	.	.
=267	=267	=267	=267
8ff	16d	16B-	8F
.	16e-	16c	.
8dd	16d	16B-	4r
.	16e-	16c	.
8r	8f	8d	.
8ee-	16c	16A	8FF
.	16d	16B-	.
8cc	16c	16A	4r
.	16d	16B-	.
8r	8e-	8c	.
=268	=268	=268	=268
2.r	16bb- 16b-	16f	8D
.	16bb- 16b-	16f	.
.	16bb- 16b-	16f	8D
.	16bb- 16b-	16f	.
.	16bb- 16b-	16f	8D
.	16bb- 16b-	16f	.
.	16gg 16b-	16e-	8E-
.	16gg 16b-	16e-	.
.	16gg 16b-	16e-	8E-
.	16gg 16b-	16e-	.
.	16gg 16b-	16e-	8E-
.	16gg 16b-	16e-	.
=269	=269	=269	=269
2r	16ff 16b-	16d	8F
.	16ff 16b-	16d	.
.	16ff 16b-	16d	8F
.	16ff 16b-	16d	.
.	16ff 16b-	16d	8F
.	16ff 16b-	16d	.
.	16f 16c	16c	8FF
.	16f 16c	16c	.
8r	16f 16c	16c	8FF
.	16f 16c	16c	.
8ff	16f 16c	16c	8FF
.	16f 16c	16c	.
=270	=270	=270	=270
8ff	4b- 4d	4B-	4BB-
8dd	.	.	.
8dd	4.r	4.r	8B-
8dd	.	.	8B-
8b-	.	.	8G
8b-	8d	8g	8G
=271	=271	=271	=271
4b-	4d	4g	4G
8dd	8a-	8B	8F
4cc	4g	4c	4E-
8dd	8b	8f	8D
=272	=272	=272	=272
8.ee-	4cc	4g	4C
16dd	.	.	.
8cc	2r	2r	2r
8ff#	.	.	.
8gg	.	.	.
16ee-	.	.	.
16cc	.	.	.
=273	=273	=273	=273
[2b-	16d	8f	8F
.	16f	.	.
.	16d	8f	8F
.	16f	.	.
.	16d	8f	8F
.	16f	.	.
.	16d	8f	8F
.	16f	.	.
8b-]	16d	8f	8F
.	16f	.	.
8cc	16e-	8a	8F
.	16f	.	.
=274	=274	=274	=274
4b-	8d	8b-	8BB-
.	8f	8d	8B-
4r	8f	8d	8B-
.	8f	8d	8B-
16dd	4r	4r	4r
16cc	.	.	.
16ee-	.	.	.
16dd	.	.	.
=275	=275	=275	=275
8ff	8r	8r	8r
4.r	8a 8f	8e- 8c	8F
.	8a 8f	8e- 8c	8F
.	8a 8f	8e- 8c	8F
16aa	4r	4r	4r
16bb-	.	.	.
16ccc	.	.	.
16aa	.	.	.
=276	=276	=276	=276
8bb-	8r	8r	8r
4.r	16d	16B-	8BB-
.	16c	16A	.
.	16e-	16c	8BB-
.	16d	16B-	.
.	8f	8d	8BB-
16dd	4r	4r	4r
16cc	.	.	.
16ee-	.	.	.
16dd	.	.	.
=277	=277	=277	=277
8ff	8r	8r	8r
4.r	16c	16A	8FF
.	16B-	16G	.
.	16d	16B-	8FF
.	16c	16A	.
.	8e-	8c	8FF
16aa	16cc	8f	4r
16bb-	16dd	.	.
16ccc	16ee-	8f	.
16aa	16cc	.	.
=278	=278	=278	=278
4bb-	4dd	4B-	4.r
8r	8r	8r	.
4bb- 4b- 4d	4dd 4f 4B-	4b-	4B-
8r	8r	8r	8r
=279	=279	=279	=279
4B-	4B-	4B-	4BB-
2r	2r	2r	2r
==	==	==	==
*-	*-	*-	*-
!!!RWG1: This file contains only pitch and duration data.
!!!RWG2: Transposing instruments are not transposed.
!!!RWG3: Spines may have incompatible meters.
!!!RWG4: Durations of rests and tied notes may be interpreted.
!!!RWG: Key is interpreted using the Humdrum key tool.
!!!OPT: Hunt
!!!AFT: stage1
!!!END: 1997/04/15
!!format changes:
!!content changes:
!!public access: complete
!!!KEY: 4073265630
!!!EMD: Converted from MuseData to Humdrum Dec 16, 2000, by Andreas Kornstaedt using muse2kern.
